X:1
T:Title
%%score 1 ( 2 3 )
L:1/8
Q:1/4=80
M:4/4
K:C
V:1 treble nm="Voice"
V:2 treble-8 nm="Guitar"
V:3 treble-8 
V:1
 z8 |"^An die Musik   Schubert            Arranged for voice & guitar by G Dempsey" z8 |: %2
 z2"^Du   hol - de       Kunst                 in        wie  -  vel  grau - en" G2 c2 c2 | E6 A2 | %4
 C3 C (ED)(CD) | %5
"^Stun - den,                                          wo     mich    des        Le   -    -    bens  wil   -   -  der    Kreis        um- - strickt," E2 C2 z4 | %6
 z2 G2 A2 A2 | B,3 B, C3 C | (ED)(CD) E4 | z8 | %10
 z2"^hast   du       mein  Herz                      zu      war  -  - mer  Lied  ent  -  zun -  den,              hast" c2 d3 F | %11
 (E2 G4) (AB) | c3 e (dB)(GF) | F2 E2 z2 G2 | %14
"^mich           in   ei   -   -   ne        bess   -   -   re  Welt          en  -  ruckt,                      in  ei - ne       bess  -   re    Welt        en  -" A3 A A2 (Bc) | %15
 c3 c e3 d | c4 z ABc | (c2 E)E (G2 B,)B, |"^ruckt!" C4 z4 | %19
"^CVIII..............................             CVIII..............                                    CIII............." z8 | %20
 z8 | z8 :| z8 |] %23
V:2
 [Gce][Gce][Gce][Gce] [Gce][Gce][Gce][Gce] | [Gcg][Gcg][Gcg][Gcg] [GBf][GBf][B,Fd][B,Fd] |: %2
 [EG][Gce][Gce][Gce] [Gce][Gce][Gce][Gce] | [Gce][Gce][Gce][Gce] [Ece][Ece][Ace][Ace] | %4
 z [Gce][Gce][Gce] z [GBf][GBf][GBf] | z [Gce][Gce][Gce] [Gce][Gce][Gce][Gce] | %6
 [Gcg][Gcg][Gcg][Gcg] [ca][ca][ca][ca] | z !4!!2!!0![DFB][DFB][DFB] z [Ec][Ec][Ec] | %8
 z [FGd][FGd][FGd] z [EGe][EGe][EGe] | [GBd][GBd][GBg][GBg] [Acg][Acg][Bdg][Bdg] | %10
 [cg][cg][Ecg][Ecg] [Fdg][Fdg][Fdg][Fdg] | [cg][cg][B,dg][dg] [Acg][Acg][Bdg][Bdg] | %12
 [cg][cg][Ecg][Ecg] [Fdg][Fdg][Fdg][Fdg] | z [Gce][Gce][Gce] [GBf][GBf][_Bcg][Bcg] | %14
 z [ca][ca][ca] z [c^da][cda][cda] | z [ceg][ceg][ceg] z !3!!1!!4![deb][deb][deb] | %16
 z [cec'][cec'][cec'] z [c^da][cda][cda] | z [ceg][ceg][ceg] z [FGB][FGB][FGB] | %18
 [EGc][cec'][cec'][cec'] [cec'][cec'][dfb][Gec'] | !4![gb]!4![cfa][cfa][cfa] [cfa]f[ca]!0![FAB] | %20
 [fa][Geg][Geg][Geg] [Geg][Ge][Be][ce] | [A^cg][df][Adf][Adf] [DBf][FBd][FBd][FBd] :| %22
 [CEGce]6 z2 |] %23
V:3
 z2 G,2 C2 C2 | E,4 G2 G,2 |: C2 z6 | z2 E,2 A,2 ^F,2 | G,2 z2 G,2 z2 | C2 G,2 C2 C2 | E,4 F4 | %7
 !1!G,2 !3!^G,2 A,2 z2 | B,4 C4 | G,2 G2 F2 F2 | E2 C2 B,2 G,2 | E2 G,G F2 F2 | E2 C2 B,3 G, | %13
 C4 E2 E2 | F4 ^F4 | G4 !2!^G4 | A4 ^F4 | G4 G,4 | C2 z2 z4 | !1!F4 z FcF | C4 z CDE | %21
 E,2 F,2 G,4 :| z8 |] %23

